icons/doctor_female.svg

<svg width="48" height="48" viewBox="0 0 48 48" fill="none" xmlns="http://www.w3.org/2000/svg">
<path fill-rule="evenodd" clip-rule="evenodd" d="M32.2629 8.35644C32.2928 8.3921 32.3211 8.43095 32.3458 8.47043L32.347 8.47236L32.3497 8.47673L32.3589 8.49155L32.3915 8.545C32.4195 8.59101 32.4595 8.65757 32.5098 8.74312C32.6105 8.91417 32.7527 9.16141 32.9225 9.47237C33.2616 10.0936 33.7133 10.9729 34.1654 12.01C35.0589 14.0593 36 16.8267 36 19.4633C36 22.4462 33.9846 24.1 32.213 24.9544C31.3207 25.3847 30.4397 25.6422 29.7889 25.7925C29.6633 25.8215 29.5455 25.8467 29.437 25.8685C28.0098 27.1913 26.0993 27.9999 24 27.9999C21.4671 27.9999 19.2092 26.8229 17.7434 24.9859L17.6966 24.9819C17.5365 24.9676 17.3136 24.9421 17.0484 24.8962C16.5228 24.8054 15.8063 24.6306 15.0771 24.2904C14.3474 23.9498 13.5721 23.4278 12.9781 22.627C12.3748 21.8138 12 20.768 12 19.4633C12 16.9963 13.202 14.1926 14.3055 12.1108C14.8693 11.0471 15.4319 10.1273 15.8536 9.47333C16.0647 9.14588 16.2412 8.88389 16.3658 8.70251C16.4282 8.61179 16.4776 8.54115 16.5119 8.49248L16.5442 8.44695L16.5561 8.42817C16.5776 8.39455 16.6068 8.35034 16.6441 8.29707C16.7188 8.19059 16.8262 8.04752 16.9695 7.88035C17.256 7.54622 17.6877 7.11372 18.2894 6.68536C19.5032 5.82122 21.3733 5 24.0547 5C26.7298 5 28.7667 5.81668 30.1391 6.64341C30.8236 7.05574 31.3427 7.47034 31.6956 7.78746C31.8723 7.94619 32.0079 8.08108 32.1024 8.17991C32.1497 8.22935 32.1868 8.26985 32.2136 8.29988C32.227 8.31489 32.2379 8.3273 32.2462 8.33692L32.2568 8.34922L32.2606 8.35376L32.2622 8.35561L32.2629 8.35644ZM18.2373 9.51173C18.2222 9.53706 18.206 9.56171 18.1887 9.58562L18.187 9.58803L18.1792 9.59886L18.146 9.64571C18.1162 9.68791 18.0715 9.75169 18.0142 9.83519C17.8994 10.0022 17.7338 10.2478 17.5345 10.557C17.1352 11.1764 16.6033 12.0461 16.0726 13.0474C14.987 15.0955 14 17.5235 14 19.4633C14 20.3619 14.2502 20.9849 14.5844 21.4355C14.9279 21.8985 15.4026 22.2352 15.9229 22.478C16.17 22.5933 16.42 22.6839 16.6584 22.7549C16.501 22.0348 16.3304 21.1174 16.2294 20.1553C16.1165 19.0809 16.0834 17.8899 16.2854 16.8375C16.4836 15.8047 16.9525 14.6958 18.027 14.1189C19.4559 13.3519 21.8739 12.3263 24.0059 11.6187C25.0692 11.2658 26.1057 10.977 26.9348 10.8455C27.3424 10.7809 27.7595 10.7441 28.1276 10.7819C28.4165 10.8116 29.0127 10.9208 29.3433 11.4612C32.0238 15.3307 32.0629 18.8757 31.384 21.4655C31.1879 22.2135 30.9336 22.8767 30.6716 23.4414C30.8931 23.3572 31.1192 23.2615 31.3442 23.153C32.794 22.4537 34 21.3391 34 19.4633C34 17.2411 33.1899 14.7768 32.3321 12.8092C31.9086 11.8378 31.4846 11.0124 31.1671 10.4309C31.0085 10.1405 30.8771 9.91193 30.7862 9.7575C30.7466 9.69021 30.7147 9.63706 30.6917 9.59906L30.6681 9.57393L30.657 9.56227C30.5947 9.49704 30.4951 9.39756 30.3588 9.27504C30.0857 9.02966 29.6677 8.69426 29.1071 8.35659C27.9895 7.68332 26.3051 7 24.0547 7C21.8108 7 20.3425 7.67878 19.4494 8.31464C18.9976 8.63628 18.6837 8.95378 18.4879 9.18215C18.3901 9.29623 18.3222 9.38753 18.2818 9.44512C18.2617 9.47388 18.2484 9.49412 18.2418 9.50445L18.2373 9.51173ZM32.3458 8.47043C32.3456 8.47022 32.3455 8.47004 31.4975 9L32.3458 8.47043ZM31.4975 9L32.2629 8.35644C32.2632 8.35682 32.2635 8.3572 31.4975 9ZM18.7427 22.8938C18.7188 22.7952 18.6938 22.6894 18.6681 22.5771C18.5066 21.8719 18.3214 20.9265 18.2184 19.9464C18.1142 18.9544 18.1013 17.9872 18.2496 17.2144C18.4016 16.422 18.6794 16.0387 18.973 15.8811C20.2804 15.1792 22.5888 14.1963 24.6359 13.5169C25.6621 13.1763 26.5784 12.927 27.248 12.8208C27.5013 12.7807 27.687 12.7664 27.8129 12.7666C30.0106 16.0351 29.9879 18.904 29.4494 20.9583C29.1706 22.0217 28.7482 22.8824 28.3963 23.4754C28.2209 23.771 28.0646 23.9973 27.9554 24.1459C27.9009 24.2201 27.8583 24.2747 27.8312 24.3086C27.8286 24.3118 27.8262 24.3147 27.824 24.3176C27.8141 24.3297 27.8069 24.3384 27.8026 24.3436L27.7991 24.3479L27.798 24.3492C27.6802 24.4866 27.6047 24.6496 27.5735 24.8201C26.5753 25.5614 25.3389 25.9999 24 25.9999C21.7356 25.9999 19.7642 24.7456 18.7427 22.8938ZM27.9798 12.7809C27.979 12.7814 27.9697 12.78 27.9541 12.7753C27.9728 12.7781 27.9806 12.7805 27.9798 12.7809Z" fill="black"/>
<path fill-rule="evenodd" clip-rule="evenodd" d="M17.9141 28.8551C17.7025 28.4331 17.4413 27.9121 17 28.0126C11.5958 29.2434 6 32.7946 6 36.5699V42H42V36.5699C42 33.5962 38.5281 30.7615 34.4127 29.0903L34.3993 29.0626L34.3944 29.0528L34.3611 29.0694C33.2676 28.6285 32.1296 28.2699 31 28.0126C30.4972 27.8981 29.9775 28.5902 29.7493 29.0237H25.6851C24.7983 29.0239 24.3458 29.0238 23.9022 29.0237H23.8769C23.4237 29.0236 22.9705 29.0235 22.0639 29.0237H18C17.9721 28.9707 17.9436 28.9139 17.9141 28.8551ZM31.4029 30.176C31.8398 30.2965 32.2749 30.4325 32.7043 30.5826C32.7161 30.9246 32.6903 31.3284 32.6342 31.7399C32.5775 32.1557 32.4932 32.5546 32.3994 32.8762C32.3867 32.9197 32.3741 32.9609 32.3616 33H31C30.6212 33 30.275 33.214 30.1056 33.5528L29.1056 35.5528C29.0361 35.6916 29 35.8448 29 36V38C29 38.5523 29.4477 39 30 39H32V37H31V36.2361L31.618 35H34.382L35 36.2361V37H34V39H36C36.5523 39 37 38.5523 37 38V36C37 35.8448 36.9639 35.6916 36.8944 35.5528L35.8944 33.5528C35.725 33.214 35.3788 33 35 33H34.4336C34.5076 32.6851 34.5697 32.3485 34.6158 32.0101C34.6435 31.8071 34.666 31.5994 34.6818 31.3915C35.6567 31.8524 36.5634 32.3805 37.3477 32.9527C39.2703 34.3554 40 35.6669 40 36.5699V40H8V36.5699C8 35.6669 8.72972 34.3554 10.6523 32.9527C11.6185 32.2478 12.7705 31.6098 14.0071 31.0819C14.02 31.3916 14.0498 31.7062 14.0913 32.0101C14.1596 32.5109 14.2628 33.0079 14.3877 33.4362L14.396 33.4644C13.557 33.9962 13 34.9331 13 36C13 37.6569 14.3431 39 16 39C17.6569 39 19 37.6569 19 36C19 34.4623 17.8431 33.1948 16.3521 33.0204C16.3375 32.9754 16.3226 32.9273 16.3077 32.8762C16.2139 32.5546 16.1296 32.1557 16.0729 31.7399C16.0161 31.3228 15.9903 30.9137 16.0033 30.5687C16.0064 30.4853 16.0116 30.4109 16.0182 30.345C16.1382 30.3081 16.2584 30.2722 16.3788 30.2375L16.7927 31.0237H22.0644C22.9912 31.0235 23.4375 31.0236 23.8896 31.0237C24.3313 31.0238 24.7785 31.0239 25.6851 31.0237H30.9566L31.4029 30.176ZM16 37.0147C16.5384 37.0147 17 36.5742 17 36C17 35.4258 16.5384 34.9853 16 34.9853C15.4616 34.9853 15 35.4258 15 36C15 36.5742 15.4616 37.0147 16 37.0147Z" fill="black"/>
</svg>

<svg
  xmlns="http://www.w3.org/2000/svg"
  width="24"
  height="24"
  viewBox="0 0 24 24"
  fill="none"
  stroke="currentColor"
  stroke-width="2"
  stroke-linecap="round"
  stroke-linejoin="round"
>
  <path
    fill-rule="evenodd"
    d="M32.263 8.356q.045.055.083.114l.001.002.003.005.009.015.032.053q.044.07.119.198a32.282 32.282 0 0 1 1.656 3.267C35.058 14.06 36 16.827 36 19.463c0 2.983-2.015 4.637-3.787 5.491a11.7 11.7 0 0 1-2.776.915A7.97 7.97 0 0 1 24 27.999a7.99 7.99 0 0 1-6.257-3.013l-.046-.004a8 8 0 0 1-.649-.086 8 8 0 0 1-1.97-.606c-.73-.34-1.506-.862-2.1-1.663-.603-.813-.978-1.859-.978-3.164 0-2.467 1.202-5.27 2.306-7.352a36 36 0 0 1 2.206-3.619l.032-.045.012-.019.088-.13c.075-.107.182-.25.326-.418a7.4 7.4 0 0 1 1.32-1.195C19.502 5.821 21.372 5 24.054 5c2.675 0 4.712.817 6.084 1.643.685.413 1.204.827 1.557 1.144a8 8 0 0 1 .55.55l.01.012.005.005zM18.237 9.512l-.048.074-.002.002-.008.01-.033.048q-.046.063-.132.19a34.39 34.39 0 0 0-1.942 3.212C14.988 15.094 14 17.522 14 19.462c0 .899.25 1.522.584 1.973.344.462.819.8 1.339 1.042.247.115.497.206.735.277a24 24 0 0 1-.429-2.6c-.113-1.074-.146-2.265.056-3.318.199-1.032.668-2.141 1.742-2.718 1.429-.767 3.847-1.793 5.979-2.5 1.063-.353 2.1-.642 2.929-.774.407-.064.825-.1 1.193-.063.288.03.885.139 1.215.68 2.68 3.869 2.72 7.414 2.041 10.003-.196.749-.45 1.412-.712 1.976q.333-.126.672-.288c1.45-.7 2.656-1.814 2.656-3.69 0-2.222-.81-4.686-1.668-6.654a30 30 0 0 0-1.546-3.051l-.094-.159-.024-.025-.011-.012a6 6 0 0 0-.298-.287 8.3 8.3 0 0 0-1.252-.918C27.99 7.683 26.305 7 24.055 7c-2.244 0-3.712.679-4.606 1.315a5.4 5.4 0 0 0-.961.867 4 4 0 0 0-.246.322zM32.346 8.47l-.848.53zm-.848.53.765-.644zM18.743 22.894l-.075-.317a23 23 0 0 1-.45-2.63c-.104-.993-.117-1.96.032-2.733.152-.792.43-1.175.723-1.333 1.307-.702 3.616-1.685 5.663-2.364 1.026-.34 1.942-.59 2.612-.696.253-.04.439-.055.565-.054 2.198 3.268 2.175 6.137 1.636 8.191a9.9 9.9 0 0 1-1.053 2.517 8 8 0 0 1-.565.834l-.007.009-.021.026-.004.004-.001.001a1 1 0 0 0-.224.471 5.998 5.998 0 0 1-8.83-1.926M27.98 12.78q-.002 0-.026-.006a.1.1 0 0 1 .026.006"
    clip-rule="evenodd"
  />
  <path
    fill-rule="evenodd"
    d="M17.914 28.855c-.212-.422-.473-.943-.914-.842-5.404 1.23-11 4.782-11 8.557V42h36v-5.43c0-2.974-3.472-5.808-7.587-7.48l-.014-.027-.005-.01-.033.016c-1.093-.44-2.231-.8-3.361-1.056-.503-.115-1.023.577-1.25 1.01H18zm13.489 1.321q.656.181 1.301.407c.012.342-.014.745-.07 1.157a8 8 0 0 1-.272 1.26H31a1 1 0 0 0-.894.553l-1 2A1 1 0 0 0 29 36v2a1 1 0 0 0 1 1h2v-2h-1v-.764L31.618 35h2.764L35 36.236V37h-1v2h2a1 1 0 0 0 1-1v-2a1 1 0 0 0-.106-.447l-1-2A1 1 0 0 0 35 33h-.566a11 11 0 0 0 .248-1.608c.975.46 1.881.988 2.666 1.56C39.27 34.356 40 35.668 40 36.57V40H8v-3.43c0-.903.73-2.215 2.652-3.617.966-.705 2.119-1.343 3.355-1.871.013.31.043.624.084.928.069.5.172.998.297 1.426l.008.028a3 3 0 1 0 1.956-.444l-.044-.144a8 8 0 0 1-.235-1.136 7 7 0 0 1-.07-1.171q.005-.126.015-.224.18-.056.36-.107l.415.786h14.164zM16 37.015c.538 0 1-.44 1-1.015 0-.574-.462-1.015-1-1.015s-1 .44-1 1.015c0 .574.462 1.015 1 1.015"
    clip-rule="evenodd"
  />
</svg>
